img/btnnext.svg

<svg width="45" height="45" viewBox="0 0 45 45" fill="none" xmlns="http://www.w3.org/2000/svg">
<rect x="0.158203" width="44.1389" height="44.1389" rx="5" fill="#FFD600"/>
<path d="M28.9633 23.1301C29.5491 22.5443 29.5491 21.5946 28.9633 21.0088L19.4174 11.4629C18.8316 10.8771 17.8819 10.8771 17.2961 11.4629C16.7103 12.0486 16.7103 12.9984 17.2961 13.5842L25.7814 22.0695L17.2961 30.5547C16.7103 31.1405 16.7103 32.0903 17.2961 32.6761C17.8819 33.2618 18.8316 33.2618 19.4174 32.6761L28.9633 23.1301ZM13.3999 23.5695L27.9027 23.5695L27.9027 20.5695L13.3999 20.5695L13.3999 23.5695Z" fill="#272727"/>
</svg>

<svg width="45" height="45" fill="none" xmlns="http://www.w3.org/2000/svg"><rect x=".158" width="44.139" height="44.139" rx="5" fill="#FFD600"/><path d="M28.963 23.13a1.5 1.5 0 000-2.121l-9.546-9.546a1.5 1.5 0 10-2.12 2.121l8.484 8.486-8.485 8.485a1.5 1.5 0 002.121 2.121l9.546-9.546zm-15.563.44h14.503v-3H13.4v3z" fill="#272727"/></svg>
